X:372
T:Vincent Broderick's
Z: id:dc-reel-344
M:C
L:1/8
K:D Major
B|A2FA DAFA|f2df edBd|A2FA DAFA|B2dB BAFB|!
A2FA DAFA|f2df edBd|f2af bfaf|e2de fdd:|!
e|f2af bfaf|e2de fdde|f2df e2de|f2df edBd|!
f2af bfaf|e2de fdde|f2df edBd|AFEF D3:|!

